X:1
T:Title
%%score 1 2 3 4
L:1/8
M:2/2
K:C
V:1 treble nm="Part_1"
V:2 treble nm="Part_2"
V:3 treble-8 nm="Part_3"
V:4 treble-8 nm="Part_4"
V:1
 G6 A2 | B4 B4 | c6 B2 | A6 GF | E8 | z4 c4 | c8 | B8 | A6 GF | E8 | z4 G4- | G2 F2 D4 | E6 F2 | %13
 G6 FG | A4 G4- | G4 F4 | (3:2:2G8 D4 | F4 E4- | E8 | D4 C2 D2 | E8- | E8 | z8 | B8 | c6 B2 | %25
 A4 G4 | E4 A4- | A2 G2 G2 F2 | A8 | z8 | B8 | c6 B2 | A6 GF | E4 C4 | D8 | E8- | E8 | z4 F4- | %38
 F4 G4 | E4 A4- | A4 (G4 | F4) D4 | E4 F4 | G8 | A8 | G8 | F8- | F8 | z4 A4 | A8 | F8 | z4 A4- | %52
 A4 c4 | B4 A2 G2 | F6 EF | G8 | E6 C2 | D8 | z4 E4 | E8- | E4 C4 | z4 E4 | D4 G4- | G4 F4 | G8 | %65
 z8 | G8 | B8 | c6 A2 | A4 G4 | E4 G4 | c6 BA | B4 c4 | d8 | c6 B2 | A6 G2 | G8 | A4 c4- | %78
 c2 BA B4 | c6 B2 | G8 | A8 | B4 c4 | B2 A2 A4 | A2 G4 F2 | A8 |] %86
V:2
 G8- | G8 | F4 E4- | E4 A4- | A2 G2 A4 | G6 E2 | F6 EF | G8 | z4 F4 | G4 A4 | G4 c4- | %11
 c2 B2 B2 A2 | c8- | c8 | c8 | z8 | B4 d4 | c6 BA | G8 | A8 | B6 G2 | G8- | G8 | z4 G4 | F4 E4- | %25
 E4 E4 | E6 F2 | D6 CD | E8 | F6 EF | G8 | E8 | z8 | z8 | G8- | G4 A4 | G4 c4- | c4 c4 | B4 d4 | %39
 c6 B2 | A2 G2 c4- | c2 B2 B2 A2 | c8- | c8 | z8 | G8 | A8- | A4 B4 | d6 cB | d6 c2 | A4 B4 | %51
 A6 GF | E8 | F6 G2 | A4 B4 | c6 Bc | B2 A2 A4- | A2 G2 G2 F2 | A8 | z4 A4 | G8 | A8 | B8 | z4 c4 | %64
 B8 | d6 c2 | d4 B4 | G8 | z4 E4- | E2 F2 D2 G2- | G2 A2 B2 G2- | G2 F2 F2 E2 | G8 | z4 G4 | E8 | %75
 F8 | E8 | z4 G4- | G2 F2 D4 | E8 | D4 E4 | C4 F4- | F4 G4 | E6 C2 | D6 C2 | E8 |] %86
V:3
 G8- | G8 | A8 | A8 | c8- | c8 | A8 | G8 | A4 B4 | c8 | e4 c4 | d8 | c8- | c8 | c8 | A8 | G8 | %17
 A6 G2 | E4 G4 | F8 | E8- | E8 | z8 | G8 | A8 | A4 B4 | c4 A4 | B8 | A8- | A8 | G8 | A6 B2 | %32
 c4 d4- | d2 c2 c4- | c4 B4 | c8- | c8 | c8 | G8 | A8 | c4 e4 | d8 | c8- | c8 | c8 | c8 | d8- | %47
 d8 | e8 | d8- | d8 | c8 | c8 | d8 | z4 d4 | e8 | c4 A4 | B8 | A8- | A8 | z4 c4 | c8 | G4 B4 | A8 | %64
 G8- | G8 | z8 | G8 | A8- | A4 B4 | c4 G4 | A8 | G8- | G8 | A8- | A8 | c8- | c8 | d8 | c4 A4 | %80
 B4 c4- | c4 d4- | d4 e4 | c4 A4 | B8 | A8 |] %86
V:4
 d8- | d8 | c8- | c8 | z4 C4 | C8 | c8 | d8 | D8 | C8- | C8 | G8 | C8- | C8 | F4 C4 | c8 | d4 B4 | %17
 c8 | B8 | A8 | z4 B4 | B8 | c8 | d8 | c8 | z4 G4 | C4 c4 | d4 G4 | c8- | c8 | d8 | c8 | F4 D4 | %33
 A4 c4 | G8 | C8- | C8 | e8 | d8 | c4 F4- | F2 E2 C4 | G8 | C8- | C8 | F8 | E8 | D8- | D8 | A8 | %49
 D8- | D8 | F6 G2 | A8 | D8- | D8 | C8 | z4 c4 | G8 | c8- | c8 | c8 | z4 A4 | d4 d4- | d4 c4 | %64
 d6 c2 | d4 B4 | G8 | d8 | c8 | c4 G4 | z4 d4- | d4 c4 | d8- | d8 | z4 c4 | F8 | C8- | C8 | G8 | %79
 C4 z4 | G4 E4 | F8 | D4 C4- | C4 c4 | G8 | [ce]8 |] %86

